;FLAVOR:Marlin
;TIME:6804
;Filament used: 8.33822m
;Layer height: 0.28
;MINX:86.5
;MINY:86.5
;MINZ:0.28
;MAXX:148.5
;MAXY:148.5
;MAXZ:39.76
;Generated with Cura_SteamEngine 4.7.1
M140 S50
M105
M190 S50
M104 S200
M105
M109 S200
M82 ;absolute extrusion mode
; Ender 3 Custom Start G-code
G92 E0 ; Reset Extruder
G28 ; Home all axes
G1 Z2.0 F3000 ; Move Z Axis up little to prevent scratching of Heat Bed
G1 X0.1 Y20 Z0.3 F5000.0 ; Move to start position
G1 X0.1 Y200.0 Z0.3 F1500.0 E15 ; Draw the first line
G1 X0.4 Y200.0 Z0.3 F5000.0 ; Move to side a little
G1 X0.4 Y20 Z0.3 F1500.0 E30 ; Draw the second line
G92 E0 ; Reset Extruder
G1 Z2.0 F3000 ; Move Z Axis up little to prevent scratching of Heat Bed
G1 X5 Y20 Z0.3 F5000.0 ; Move over to prevent blob squish
G92 E0
G92 E0
G1 F2700 E-5
;LAYER_COUNT:142
;LAYER:0
M107
G0 F6000 X89.698 Y89.764 Z0.28
;TYPE:SKIRT
G1 F2700 E0
G1 F1200 X90.386 Y89.127 E0.04366
G1 X91.126 Y88.551 E0.08732
G1 X91.912 Y88.039 E0.131
G1 X92.739 Y87.597 E0.17467
G1 X93.601 Y87.227 E0.21835
G1 X94.491 Y86.931 E0.26202
G1 X95.403 Y86.713 E0.30568
G1 X96.33 Y86.572 E0.34935
G1 X97.201 Y86.513 E0.39
G1 X97.522 Y86.504 E0.40495
G1 X97.83 Y86.5 E0.41929
G1 X136.951 Y86.501 E2.24093
G1 X137.649 Y86.511 E2.27343
G1 X138.585 Y86.565 E2.31709
G1 X139.513 Y86.697 E2.36074
G1 X140.427 Y86.909 E2.40443
G1 X141.319 Y87.198 E2.44809
G1 X142.184 Y87.561 E2.49177
G1 X143.014 Y87.997 E2.53543
G1 X143.805 Y88.502 E2.57912
G1 X144.549 Y89.073 E2.62279
G1 X145.242 Y89.705 E2.66647
G1 X145.879 Y90.393 E2.71013
G1 X146.454 Y91.134 E2.7538
G1 X146.965 Y91.92 E2.79745
G1 X147.407 Y92.748 E2.84116
G1 X147.776 Y93.61 E2.88482
G1 X148.071 Y94.5 E2.92848
G1 X148.289 Y95.412 E2.97214
G1 X148.429 Y96.34 E3.01584
G1 X148.487 Y97.201 E3.05603
G1 X148.496 Y97.521 E3.07093
G1 X148.5 Y97.83 E3.08532
G1 X148.499 Y136.9 E4.90458
G1 X148.49 Y137.627 E4.93844
G1 X148.439 Y138.564 E4.98213
G1 X148.307 Y139.492 E5.02578
G1 X148.098 Y140.406 E5.06944
G1 X147.811 Y141.299 E5.11312
G1 X147.449 Y142.165 E5.15682
G1 X147.015 Y142.996 E5.20048
G1 X146.511 Y143.787 E5.24415
G1 X145.942 Y144.532 E5.2878
G1 X145.311 Y145.227 E5.33151
G1 X144.624 Y145.865 E5.37517
G1 X143.885 Y146.442 E5.41883
G1 X143.099 Y146.954 E5.4625
G1 X142.273 Y147.397 E5.50615
G1 X141.411 Y147.769 E5.54987
G1 X140.522 Y148.065 E5.5935
G1 X139.61 Y148.285 E5.63718
G1 X138.683 Y148.426 E5.68084
G1 X137.799 Y148.487 E5.7221
G1 X137.478 Y148.496 E5.73706
G1 X137.17 Y148.5 E5.7514
G1 X98.065 Y148.499 E7.57229
G1 X97.367 Y148.49 E7.6048
G1 X96.431 Y148.438 E7.64845
G1 X95.502 Y148.306 E7.69214
G1 X94.588 Y148.096 E7.73581
G1 X93.695 Y147.809 E7.77948
G1 X92.83 Y147.446 E7.82317
G1 X91.999 Y147.012 E7.86682
G1 X91.208 Y146.508 E7.91049
G1 X90.463 Y145.938 E7.95417
G1 X89.769 Y145.307 E7.99785
G1 X89.132 Y144.62 E8.04147
G1 X88.555 Y143.88 E8.08517
G1 X88.043 Y143.094 E8.12885
G1 X87.6 Y142.267 E8.17253
G1 X87.229 Y141.406 E8.21619
G1 X86.933 Y140.516 E8.25986
G1 X86.714 Y139.604 E8.30354
G1 X86.573 Y138.677 E8.3472
G1 X86.513 Y137.788 E8.38869
G1 X86.504 Y137.455 E8.4042
G1 X86.5 Y137.158 E8.41803
G1 X86.501 Y98.025 E10.24023
G1 X86.51 Y97.36 E10.27119
G1 X86.563 Y96.424 E10.31485
G1 X86.695 Y95.495 E10.35854
G1 X86.906 Y94.581 E10.40222
G1 X87.194 Y93.689 E10.44587
G1 X87.557 Y92.824 E10.48955
G1 X87.992 Y91.993 E10.53322
G1 X88.496 Y91.203 E10.57686
G1 X89.066 Y90.458 E10.62054
G1 X89.698 Y89.764 E10.66424
G0 F6000 X90.089 Y89.939
G1 F1200 X90.774 Y89.323 E10.70714
G1 X91.51 Y88.77 E10.75001
G1 X92.291 Y88.282 E10.79289
G1 X93.111 Y87.864 E10.83575
G1 X93.965 Y87.519 E10.87863
G1 X94.845 Y87.249 E10.9215
G1 X95.745 Y87.057 E10.96435
G1 X96.659 Y86.943 E11.00724
G1 X97.212 Y86.913 E11.03302
G1 X97.533 Y86.904 E11.04798
G1 X97.83 Y86.9 E11.06181
G1 X136.793 Y86.9 E12.87609
G1 X137.643 Y86.911 E12.91567
G1 X138.562 Y86.964 E12.95854
G1 X139.473 Y87.097 E13.00141
G1 X140.369 Y87.308 E13.04427
G1 X141.243 Y87.596 E13.08712
G1 X142.09 Y87.959 E13.13003
G1 X142.901 Y88.394 E13.17288
G1 X143.671 Y88.898 E13.21573
G1 X144.395 Y89.467 E13.25861
G1 X145.067 Y90.097 E13.3015
G1 X145.682 Y90.782 E13.34437
G1 X146.235 Y91.518 E13.38723
G1 X146.722 Y92.299 E13.43009
G1 X147.139 Y93.12 E13.47297
G1 X147.484 Y93.974 E13.51586
G1 X147.753 Y94.854 E13.55871
G1 X147.945 Y95.755 E13.6016
G1 X148.058 Y96.668 E13.64444
G1 X148.087 Y97.212 E13.66981
G1 X148.096 Y97.532 E13.68471
G1 X148.1 Y97.83 E13.69859
G1 X148.099 Y136.895 E15.51762
G1 X148.09 Y137.622 E15.55148
G1 X148.039 Y138.541 E15.59433
G1 X147.908 Y139.453 E15.63724
G1 X147.698 Y140.349 E15.68009
G1 X147.412 Y141.224 E15.72295
G1 X147.051 Y142.071 E15.76583
G1 X146.617 Y142.883 E15.8087
G1 X146.115 Y143.655 E15.85158
G1 X145.547 Y144.38 E15.89446
G1 X144.919 Y145.053 E15.93732
G1 X144.235 Y145.669 E15.98019
G1 X143.5 Y146.223 E16.02304
G1 X142.72 Y146.712 E16.06591
G1 X141.9 Y147.131 E16.10879
G1 X141.047 Y147.477 E16.15165
G1 X140.167 Y147.748 E16.19453
G1 X139.267 Y147.941 E16.23739
G1 X138.353 Y148.056 E16.28028
G1 X137.788 Y148.087 E16.30663
G1 X137.467 Y148.096 E16.32159
G1 X137.17 Y148.1 E16.33542
G1 X98.07 Y148.099 E18.15608
G1 X97.372 Y148.09 E18.18858
G1 X96.453 Y148.038 E18.23144
G1 X95.542 Y147.907 E18.2743
G1 X94.646 Y147.697 E18.31715
G1 X93.771 Y147.41 E18.36003
G1 X92.924 Y147.048 E18.40292
G1 X92.112 Y146.614 E18.44579
G1 X91.341 Y146.112 E18.48863
G1 X90.616 Y145.544 E18.53152
G1 X89.943 Y144.915 E18.57441
G1 X89.328 Y144.231 E18.61724
G1 X88.774 Y143.496 E18.6601
G1 X88.286 Y142.715 E18.70298
G1 X87.867 Y141.895 E18.74586
G1 X87.521 Y141.042 E18.78872
G1 X87.251 Y140.162 E18.83159
G1 X87.058 Y139.261 E18.87449
G1 X86.944 Y138.348 E18.91734
G1 X86.913 Y137.777 E18.94396
G1 X86.904 Y137.444 E18.95947
G1 X86.9 Y137.158 E18.97279
G1 X86.901 Y98.031 E20.79471
G1 X86.91 Y97.366 E20.82568
G1 X86.962 Y96.446 E20.86859
G1 X87.094 Y95.535 E20.91145
G1 X87.305 Y94.639 E20.95431
G1 X87.592 Y93.764 E20.99719
G1 X87.955 Y92.918 E21.04006
G1 X88.389 Y92.106 E21.08293
G1 X88.892 Y91.335 E21.12579
G1 X89.461 Y90.611 E21.16867
G1 X90.089 Y89.939 E21.2115
G0 F6000 X90.481 Y90.117
G1 F1200 X91.162 Y89.524 E21.25355
G1 X91.894 Y88.994 E21.29563
G1 X92.669 Y88.531 E21.33767
G1 X93.482 Y88.138 E21.37971
G1 X94.327 Y87.818 E21.42179
G1 X95.196 Y87.575 E21.4638
G1 X96.084 Y87.409 E21.50587
G1 X97.223 Y87.313 E21.55909
G1 X97.544 Y87.304 E21.57405
G1 X97.83 Y87.3 E21.58737
G1 X136.793 Y87.3 E23.40165
G1 X137.637 Y87.311 E23.44095
G1 X138.539 Y87.364 E23.48302
G1 X139.432 Y87.496 E23.52506
G1 X140.31 Y87.707 E23.5671
G1 X141.166 Y87.995 E23.60916
G1 X141.993 Y88.357 E23.65119
G1 X142.785 Y88.792 E23.69327
G1 X143.536 Y89.294 E23.73533
G1 X144.239 Y89.861 E23.77739
G1 X144.889 Y90.488 E23.81944
G1 X145.481 Y91.17 E23.86149
G1 X146.011 Y91.901 E23.90354
G1 X146.473 Y92.677 E23.94559
G1 X146.866 Y93.49 E23.98764
G1 X147.184 Y94.335 E24.02968
G1 X147.427 Y95.205 E24.07174
G1 X147.592 Y96.093 E24.1138
G1 X147.687 Y97.223 E24.1666
G1 X147.696 Y97.543 E24.18151
G1 X147.7 Y97.83 E24.19487
G1 X147.699 Y136.89 E26.01367
G1 X147.69 Y137.617 E26.04752
G1 X147.639 Y138.519 E26.08959
G1 X147.508 Y139.413 E26.13166
G1 X147.299 Y140.291 E26.17369
G1 X147.013 Y141.148 E26.21576
G1 X146.652 Y141.976 E26.25782
G1 X146.22 Y142.768 E26.29983
G1 X145.719 Y143.52 E26.3419
G1 X145.153 Y144.224 E26.38396
G1 X144.528 Y144.875 E26.42599
G1 X143.847 Y145.469 E26.46806
G1 X143.116 Y146 E26.51014
G1 X142.342 Y146.464 E26.55216
G1 X141.529 Y146.858 E26.59422
G1 X140.685 Y147.178 E26.63625
G1 X139.815 Y147.423 E26.67834
G1 X138.928 Y147.589 E26.72036
G1 X137.777 Y147.687 E26.77415
G1 X137.456 Y147.696 E26.7891
G1 X137.17 Y147.7 E26.80242
G1 X98.075 Y147.699 E28.62285
G1 X97.377 Y147.69 E28.65535
G1 X96.476 Y147.639 E28.69737
G1 X95.582 Y147.507 E28.73945
G1 X94.704 Y147.298 E28.78148
G1 X93.847 Y147.011 E28.82356
G1 X93.02 Y146.65 E28.86558
G1 X92.227 Y146.217 E28.90765
G1 X91.476 Y145.716 E28.94969
G1 X90.772 Y145.15 E28.99175
G1 X90.121 Y144.524 E29.03381
G1 X89.528 Y143.843 E29.07585
G1 X88.998 Y143.112 E29.1179
G1 X88.534 Y142.337 E29.15996
G1 X88.14 Y141.524 E29.20203
G1 X87.82 Y140.68 E29.24406
G1 X87.576 Y139.81 E29.28613
G1 X87.41 Y138.922 E29.3282
G1 X87.313 Y137.767 E29.38217
G1 X87.304 Y137.434 E29.39768
G1 X87.3 Y137.158 E29.41053
G1 X87.301 Y98.036 E31.23222
G1 X87.31 Y97.371 E31.26318
G1 X87.362 Y96.469 E31.30525
G1 X87.494 Y95.576 E31.34729
G1 X87.704 Y94.698 E31.38932
G1 X87.991 Y93.841 E31.43141
G1 X88.353 Y93.014 E31.47344
G1 X88.786 Y92.222 E31.51547
G1 X89.288 Y91.471 E31.55754
G1 X89.855 Y90.767 E31.59963
G1 X90.481 Y90.117 E31.64165
G1 F2700 E26.64165
;MESH:xyzCalibration_cube.stl
G0 F6000 X97.92 Y96.835
G0 X97.92 Y97.92
G0 X136.718 Y98.282
G0 X136.9 Y136.9
;TYPE:WALL-INNER
G1 F2700 E31.64165
G1 F1200 X98.1 Y136.9 E33.44834
G1 X98.1 Y98.1 E35.25503
G1 X136.9 Y98.1 E37.06172
G1 X136.9 Y136.9 E38.86841
G0 F6000 X137.3 Y137.3
;TYPE:WALL-OUTER
G1 F1200 X97.7 Y137.3 E40.71235
G1 X97.7 Y97.7 E42.5563
G1 X137.3 Y97.7 E44.40024
G1 X137.3 Y137.3 E46.24418
G0 F6000 X137.03 Y137.03
G0 X136.79 Y136.51
G0 X136.51 Y136.51
;TYPE:SKIN
G1 F1200 X98.49 Y136.51 E48.01455
G1 X98.49 Y98.49 E49.78492
G1 X136.51 Y98.49 E51.55529
G1 X136.51 Y136.51 E53.32566
G1 F2700 E48.32566
G0 F6000 X136.79 Y136.51
G0 X136.79 Y99.014
G0 X136.349 Y99.014
G1 F2700 E53.32566
G1 F1200 X135.985 Y98.65 E53.34963
G0 F6000 X135.42 Y98.65
G1 F1200 X136.349 Y99.58 E53.41084
G0 F6000 X136.349 Y100.146
G1 F1200 X134.854 Y98.65 E53.50932
G0 F6000 X134.288 Y98.65
G1 F1200 X136.349 Y100.711 E53.64504
G0 F6000 X136.349 Y101.277
G1 F1200 X133.723 Y98.65 E53.818
G0 F6000 X133.157 Y98.65
G1 F1200 X136.349 Y101.843 E54.02823
G0 F6000 X136.349 Y102.408
G1 F1200 X132.591 Y98.65 E54.2757
G0 F6000 X132.026 Y98.65
G1 F1200 X136.349 Y102.974 E54.56041
G0 F6000 X136.349 Y103.54
G1 F1200 X131.46 Y98.65 E54.8824
G0 F6000 X130.894 Y98.65
G1 F1200 X136.349 Y104.105 E55.24162
G0 F6000 X136.349 Y104.671
G1 F1200 X130.328 Y98.65 E55.63811
G0 F6000 X129.763 Y98.65
G1 F1200 X136.349 Y105.237 E56.07184
G0 F6000 X136.349 Y105.802
G1 F1200 X129.197 Y98.65 E56.54281
G0 F6000 X128.631 Y98.65
G1 F1200 X136.349 Y106.368 E57.05106
G0 F6000 X136.349 Y106.934
G1 F1200 X128.066 Y98.65 E57.59654
G0 F6000 X127.5 Y98.65
G1 F1200 X136.349 Y107.5 E58.17929
G0 F6000 X136.349 Y108.065
G1 F1200 X126.934 Y98.65 E58.79929
G0 F6000 X126.369 Y98.65
G1 F1200 X136.349 Y108.631 E59.45652
G0 F6000 X136.349 Y109.197
G1 F1200 X125.803 Y98.65 E60.15103
G0 F6000 X125.237 Y98.65
G1 F1200 X136.349 Y109.762 E60.88277
G0 F6000 X136.349 Y110.328
G1 F1200 X124.672 Y98.65 E61.65175
G0 F6000 X124.106 Y98.65
G1 F1200 X136.349 Y110.894 E62.45801
G0 F6000 X136.349 Y111.459
G1 F1200 X123.54 Y98.65 E63.3015
G0 F6000 X122.975 Y98.65
G1 F1200 X136.349 Y112.025 E64.18224
G0 F6000 X136.349 Y112.591
G1 F1200 X122.409 Y98.65 E65.10024
G0 F6000 X121.843 Y98.65
G1 F1200 X136.349 Y113.156 E66.05549
G0 F6000 X136.349 Y113.722
G1 F1200 X121.278 Y98.65 E67.04797
G0 F6000 X120.712 Y98.65
G1 F1200 X136.349 Y114.288 E68.07773
G0 F6000 X136.349 Y114.853
G1 F1200 X120.146 Y98.65 E69.14472
G0 F6000 X119.58 Y98.65
G1 F1200 X136.349 Y115.419 E70.24899
G0 F6000 X136.349 Y115.985
G1 F1200 X119.015 Y98.65 E71.3905
G0 F6000 X118.449 Y98.65
G1 F1200 X136.349 Y116.55 E72.56924
G0 F6000 X136.349 Y117.116
G1 F1200 X117.883 Y98.65 E73.78526
G0 F6000 X117.318 Y98.65
G1 F1200 X136.349 Y117.682 E75.03852
G0 F6000 X136.349 Y118.248
G1 F1200 X116.752 Y98.65 E76.32905
G0 F6000 X116.186 Y98.65
G1 F1200 X136.349 Y118.813 E77.65681
G0 F6000 X136.349 Y119.379
G1 F1200 X115.621 Y98.65 E79.02182
G0 F6000 X115.055 Y98.65
G1 F1200 X136.349 Y119.945 E80.4241
G0 F6000 X136.349 Y120.51
G1 F1200 X114.489 Y98.65 E81.86362
G0 F6000 X113.924 Y98.65
G1 F1200 X136.349 Y121.076 E83.34038
G0 F6000 X136.349 Y121.642
G1 F1200 X113.358 Y98.65 E84.8544
G0 F6000 X112.792 Y98.65
G1 F1200 X136.349 Y122.207 E86.40567
G0 F6000 X136.349 Y122.773
G1 F1200 X112.227 Y98.65 E87.99418
G0 F6000 X111.661 Y98.65
G1 F1200 X136.349 Y123.339 E89.61996
G0 F6000 X136.349 Y123.904
G1 F1200 X111.095 Y98.65 E91.28298
G0 F6000 X110.529 Y98.65
G1 F1200 X136.349 Y124.47 E92.98327
G0 F6000 X136.349 Y125.036
G1 F1200 X109.964 Y98.65 E94.7208
G0 F6000 X109.398 Y98.65
G1 F1200 X136.349 Y125.601 E96.49557
G0 F6000 X136.349 Y126.167
G1 F1200 X108.832 Y98.65 E98.30761
G0 F6000 X108.267 Y98.65
G1 F1200 X136.349 Y126.733 E100.15689
G0 F6000 X136.349 Y127.299
G1 F1200 X107.701 Y98.65 E102.04345
G0 F6000 X107.135 Y98.65
G1 F1200 X136.349 Y127.864 E103.96724
G0 F6000 X136.349 Y128.43
G1 F1200 X106.57 Y98.65 E105.92827
G0 F6000 X106.004 Y98.65
G1 F1200 X136.349 Y128.996 E107.92657
G0 F6000 X136.349 Y129.561
G1 F1200 X105.438 Y98.65 E109.96211
G0 F6000 X104.873 Y98.65
G1 F1200 X136.349 Y130.127 E112.03489
G0 F6000 X136.349 Y130.693
G1 F1200 X104.307 Y98.65 E114.14495
G0 F6000 X103.741 Y98.65
G1 F1200 X136.349 Y131.258 E116.29224
G0 F6000 X136.349 Y131.824
G1 F1200 X103.176 Y98.65 E118.47677
G0 F6000 X102.61 Y98.65
G1 F1200 X136.349 Y132.39 E120.69858
G0 F6000 X136.349 Y132.955
G1 F1200 X102.044 Y98.65 E122.95762
G0 F6000 X101.479 Y98.65
G1 F1200 X136.349 Y133.521 E125.2539
G0 F6000 X136.349 Y134.087
G1 F1200 X100.913 Y98.65 E127.58745
G0 F6000 X100.347 Y98.65
G1 F1200 X136.349 Y134.652 E129.95825
G0 F6000 X136.349 Y135.218
G1 F1200 X99.781 Y98.65 E132.36631
G0 F6000 X99.216 Y98.65
G1 F1200 X136.349 Y135.784 E134.81162
G0 F6000 X136.349 Y136.349
G1 F1200 X98.649 Y98.649 E137.29423
G0 F6000 X98.649 Y99.215
G1 F1200 X135.783 Y136.349 E139.73956
G0 F6000 X135.217 Y136.349
G1 F1200 X98.649 Y99.781 E142.14763
G0 F6000 X98.649 Y100.346
G1 F1200 X134.652 Y136.349 E144.51849
G0 F6000 X134.086 Y136.349
G1 F1200 X98.649 Y100.912 E146.85208
G0 F6000 X98.649 Y101.478
G1 F1200 X133.52 Y136.349 E149.14839
G0 F6000 X132.955 Y136.349
G1 F1200 X98.649 Y102.043 E151.4075
G0 F6000 X98.649 Y102.609
G1 F1200 X132.389 Y136.349 E153.62934
G0 F6000 X131.823 Y136.349
G1 F1200 X98.649 Y103.175 E155.8139
G0 F6000 X98.649 Y103.741
G1 F1200 X131.258 Y136.349 E157.96123
G0 F6000 X130.692 Y136.349
G1 F1200 X98.649 Y104.306 E160.07131
G0 F6000 X98.649 Y104.872
G1 F1200 X130.126 Y136.349 E162.14413
G0 F6000 X129.561 Y136.349
G1 F1200 X98.649 Y105.438 E164.1797
G0 F6000 X98.649 Y106.003
G1 F1200 X128.995 Y136.349 E166.17804
G0 F6000 X128.429 Y136.349
G1 F1200 X98.649 Y106.569 E168.1391
G0 F6000 X98.649 Y107.135
G1 F1200 X127.863 Y136.349 E170.06289
G0 F6000 X127.298 Y136.349
G1 F1200 X98.649 Y107.7 E171.94948
G0 F6000 X98.649 Y108.266
G1 F1200 X126.732 Y136.349 E173.79879
G0 F6000 X126.166 Y136.349
G1 F1200 X98.649 Y108.832 E175.61083
G0 F6000 X98.649 Y109.397
G1 F1200 X125.601 Y136.349 E177.38567
G0 F6000 X125.035 Y136.349
G1 F1200 X98.649 Y109.963 E179.12323
G0 F6000 X98.649 Y110.529
G1 F1200 X124.469 Y136.349 E180.82352
G0 F6000 X123.904 Y136.349
G1 F1200 X98.649 Y111.094 E182.48661
G0 F6000 X98.649 Y111.66
G1 F1200 X123.338 Y136.349 E184.11242
G0 F6000 X122.772 Y136.349
G1 F1200 X98.649 Y112.226 E185.70096
G0 F6000 X98.649 Y112.792
G1 F1200 X122.207 Y136.349 E187.25226
G0 F6000 X121.641 Y136.349
G1 F1200 X98.649 Y113.357 E188.76633
G0 F6000 X98.649 Y113.923
G1 F1200 X121.075 Y136.349 E190.24312
G0 F6000 X120.51 Y136.349
G1 F1200 X98.649 Y114.489 E191.68267
G0 F6000 X98.649 Y115.054
G1 F1200 X119.944 Y136.349 E193.08498
G0 F6000 X119.378 Y136.349
G1 F1200 X98.649 Y115.62 E194.45002
G0 F6000 X98.649 Y116.186
G1 F1200 X118.813 Y136.349 E195.77782
G0 F6000 X118.247 Y136.349
G1 F1200 X98.649 Y116.751 E197.06838
G0 F6000 X98.649 Y117.317
G1 F1200 X117.681 Y136.349 E198.32167
G0 F6000 X117.115 Y136.349
G1 F1200 X98.649 Y117.883 E199.53769
G0 F6000 X98.649 Y118.448
G1 F1200 X116.55 Y136.349 E200.7165
G0 F6000 X115.984 Y136.349
G1 F1200 X98.649 Y119.014 E201.85804
G0 F6000 X98.649 Y119.58
G1 F1200 X115.418 Y136.349 E202.96231
G0 F6000 X114.853 Y136.349
G1 F1200 X98.649 Y120.145 E204.02937
G0 F6000 X98.649 Y120.711
G1 F1200 X114.287 Y136.349 E205.05916
G0 F6000 X113.721 Y136.349
G1 F1200 X98.649 Y121.277 E206.05167
G0 F6000 X98.649 Y121.842
G1 F1200 X113.156 Y136.349 E207.00698
