;FLAVOR:Marlin
;TIME:35467
;Filament used: 26.0708m
;Layer height: 0.2
;MINX:86.5
;MINY:86.5
;MINZ:0.2
;MAXX:148.5
;MAXY:148.5
;MAXZ:40
;Generated with Cura_SteamEngine 4.7.1
M140 S50
M105
M190 S50
M104 S200
M105
M109 S200
M82 ;absolute extrusion mode
; Ender 3 Custom Start G-code
G92 E0 ; Reset Extruder
G28 ; Home all axes
G1 Z2.0 F3000 ; Move Z Axis up little to prevent scratching of Heat Bed
G1 X0.1 Y20 Z0.3 F5000.0 ; Move to start position
G1 X0.1 Y200.0 Z0.3 F1500.0 E15 ; Draw the first line
G1 X0.4 Y200.0 Z0.3 F5000.0 ; Move to side a little
G1 X0.4 Y20 Z0.3 F1500.0 E30 ; Draw the second line
G92 E0 ; Reset Extruder
G1 Z2.0 F3000 ; Move Z Axis up little to prevent scratching of Heat Bed
G1 X5 Y20 Z0.3 F5000.0 ; Move over to prevent blob squish
G92 E0
G92 E0
G1 F2700 E-5
;LAYER_COUNT:200
;LAYER:0
M107
G0 F6000 X89.698 Y89.764 Z0.2
;TYPE:SKIRT
G1 F2700 E0
G1 F1200 X90.386 Y89.127 E0.03119
G1 X91.126 Y88.551 E0.06237
G1 X91.912 Y88.039 E0.09357
G1 X92.739 Y87.597 E0.12476
G1 X93.601 Y87.227 E0.15596
G1 X94.491 Y86.931 E0.18716
G1 X95.403 Y86.713 E0.21835
G1 X96.33 Y86.572 E0.24953
G1 X97.201 Y86.513 E0.27857
G1 X97.522 Y86.504 E0.28925
G1 X97.83 Y86.5 E0.29949
G1 X136.951 Y86.501 E1.60066
G1 X137.649 Y86.511 E1.62388
G1 X138.585 Y86.565 E1.65507
G1 X139.513 Y86.697 E1.68624
G1 X140.427 Y86.909 E1.71745
G1 X141.319 Y87.198 E1.74863
G1 X142.184 Y87.561 E1.77984
G1 X143.014 Y87.997 E1.81102
G1 X143.805 Y88.502 E1.84223
G1 X144.549 Y89.073 E1.87342
G1 X145.242 Y89.705 E1.90462
G1 X145.879 Y90.393 E1.9358
G1 X146.454 Y91.134 E1.967
G1 X146.965 Y91.92 E1.99818
G1 X147.407 Y92.748 E2.0294
G1 X147.776 Y93.61 E2.06059
G1 X148.071 Y94.5 E2.09177
G1 X148.289 Y95.412 E2.12296
G1 X148.429 Y96.34 E2.15417
G1 X148.487 Y97.201 E2.18288
G1 X148.496 Y97.521 E2.19352
G1 X148.5 Y97.83 E2.2038
G1 X148.499 Y136.9 E3.50327
G1 X148.49 Y137.627 E3.52746
G1 X148.439 Y138.564 E3.55867
G1 X148.307 Y139.492 E3.58984
G1 X148.098 Y140.406 E3.62103
G1 X147.811 Y141.299 E3.65223
G1 X147.449 Y142.165 E3.68344
G1 X147.015 Y142.996 E3.71463
G1 X146.511 Y143.787 E3.74582
G1 X145.942 Y144.532 E3.777
G1 X145.311 Y145.227 E3.80822
G1 X144.624 Y145.865 E3.83941
G1 X143.885 Y146.442 E3.87059
G1 X143.099 Y146.954 E3.90179
G1 X142.273 Y147.397 E3.93296
G1 X141.411 Y147.769 E3.96419
G1 X140.522 Y148.065 E3.99535
G1 X139.61 Y148.285 E4.02656
G1 X138.683 Y148.426 E4.05774
G1 X137.799 Y148.487 E4.08722
G1 X137.478 Y148.496 E4.0979
G1 X137.17 Y148.5 E4.10814
G1 X98.065 Y148.499 E5.40878
G1 X97.367 Y148.49 E5.432
G1 X96.431 Y148.438 E5.46318
G1 X95.502 Y148.306 E5.49439
G1 X94.588 Y148.096 E5.52558
G1 X93.695 Y147.809 E5.55677
G1 X92.83 Y147.446 E5.58798
G1 X91.999 Y147.012 E5.61916
G1 X91.208 Y146.508 E5.65035
G1 X90.463 Y145.938 E5.68155
G1 X89.769 Y145.307 E5.71275
G1 X89.132 Y144.62 E5.74391
G1 X88.555 Y143.88 E5.77512
G1 X88.043 Y143.094 E5.80632
G1 X87.6 Y142.267 E5.83752
G1 X87.229 Y141.406 E5.86871
G1 X86.933 Y140.516 E5.8999
G1 X86.714 Y139.604 E5.9311
G1 X86.573 Y138.677 E5.96228
G1 X86.513 Y137.788 E5.99192
G1 X86.504 Y137.455 E6.003
G1 X86.5 Y137.158 E6.01288
G1 X86.501 Y98.025 E7.31445
G1 X86.51 Y97.36 E7.33657
G1 X86.563 Y96.424 E7.36775
G1 X86.695 Y95.495 E7.39896
G1 X86.906 Y94.581 E7.43016
G1 X87.194 Y93.689 E7.46133
G1 X87.557 Y92.824 E7.49253
G1 X87.992 Y91.993 E7.52373
G1 X88.496 Y91.203 E7.5549
G1 X89.066 Y90.458 E7.5861
G1 X89.698 Y89.764 E7.61732
G0 F6000 X90.089 Y89.939
G1 F1200 X90.774 Y89.323 E7.64796
G1 X91.51 Y88.77 E7.67858
G1 X92.291 Y88.282 E7.70921
G1 X93.111 Y87.864 E7.73982
G1 X93.965 Y87.519 E7.77045
G1 X94.845 Y87.249 E7.80107
G1 X95.745 Y87.057 E7.83168
G1 X96.659 Y86.943 E7.86231
G1 X97.212 Y86.913 E7.88073
G1 X97.533 Y86.904 E7.89141
G1 X97.83 Y86.9 E7.90129
G1 X136.793 Y86.9 E9.19721
G1 X137.643 Y86.911 E9.22548
G1 X138.562 Y86.964 E9.2561
G1 X139.473 Y87.097 E9.28672
G1 X140.369 Y87.308 E9.31733
G1 X141.243 Y87.596 E9.34794
G1 X142.09 Y87.959 E9.37859
G1 X142.901 Y88.394 E9.4092
G1 X143.671 Y88.898 E9.43981
G1 X144.395 Y89.467 E9.47044
G1 X145.067 Y90.097 E9.50107
G1 X145.682 Y90.782 E9.53169
G1 X146.235 Y91.518 E9.56231
G1 X146.722 Y92.299 E9.59292
G1 X147.139 Y93.12 E9.62355
G1 X147.484 Y93.974 E9.65418
G1 X147.753 Y94.854 E9.68479
G1 X147.945 Y95.755 E9.71543
G1 X148.058 Y96.668 E9.74603
G1 X148.087 Y97.212 E9.76415
G1 X148.096 Y97.532 E9.7748
G1 X148.1 Y97.83 E9.78471
G1 X148.099 Y136.895 E11.08401
G1 X148.09 Y137.622 E11.1082
G1 X148.039 Y138.541 E11.13881
G1 X147.908 Y139.453 E11.16945
G1 X147.698 Y140.349 E11.20006
G1 X147.412 Y141.224 E11.23068
G1 X147.051 Y142.071 E11.2613
G1 X146.617 Y142.883 E11.29193
G1 X146.115 Y143.655 E11.32255
G1 X145.547 Y144.38 E11.35319
G1 X144.919 Y145.053 E11.3838
G1 X144.235 Y145.669 E11.41442
G1 X143.5 Y146.223 E11.44503
G1 X142.72 Y146.712 E11.47565
G1 X141.9 Y147.131 E11.50628
G1 X141.047 Y147.477 E11.5369
G1 X140.167 Y147.748 E11.56752
G1 X139.267 Y147.941 E11.59814
G1 X138.353 Y148.056 E11.62877
G1 X137.788 Y148.087 E11.64759
G1 X137.467 Y148.096 E11.65828
G1 X137.17 Y148.1 E11.66815
G1 X98.07 Y148.099 E12.96863
G1 X97.372 Y148.09 E12.99184
G1 X96.453 Y148.038 E13.02246
G1 X95.542 Y147.907 E13.05307
G1 X94.646 Y147.697 E13.08368
G1 X93.771 Y147.41 E13.11431
G1 X92.924 Y147.048 E13.14494
G1 X92.112 Y146.614 E13.17557
G1 X91.341 Y146.112 E13.20617
G1 X90.616 Y145.544 E13.2368
G1 X89.943 Y144.915 E13.26744
G1 X89.328 Y144.231 E13.29803
G1 X88.774 Y143.496 E13.32864
G1 X88.286 Y142.715 E13.35927
G1 X87.867 Y141.895 E13.3899
G1 X87.521 Y141.042 E13.42052
G1 X87.251 Y140.162 E13.45113
G1 X87.058 Y139.261 E13.48178
G1 X86.944 Y138.348 E13.51238
G1 X86.913 Y137.777 E13.5314
G1 X86.904 Y137.444 E13.54248
G1 X86.9 Y137.158 E13.552
G1 X86.901 Y98.031 E14.85336
G1 X86.91 Y97.366 E14.87548
G1 X86.962 Y96.446 E14.90613
G1 X87.094 Y95.535 E14.93675
G1 X87.305 Y94.639 E14.96737
G1 X87.592 Y93.764 E14.99799
G1 X87.955 Y92.918 E15.02861
G1 X88.389 Y92.106 E15.05924
G1 X88.892 Y91.335 E15.08985
G1 X89.461 Y90.611 E15.12048
G1 X90.089 Y89.939 E15.15107
G0 F6000 X90.481 Y90.117
G1 F1200 X91.162 Y89.524 E15.18111
G1 X91.894 Y88.994 E15.21116
G1 X92.669 Y88.531 E15.24119
G1 X93.482 Y88.138 E15.27122
G1 X94.327 Y87.818 E15.30128
G1 X95.196 Y87.575 E15.33129
G1 X96.084 Y87.409 E15.36134
G1 X97.223 Y87.313 E15.39935
G1 X97.544 Y87.304 E15.41003
G1 X97.83 Y87.3 E15.41955
G1 X136.793 Y87.3 E16.71546
G1 X137.637 Y87.311 E16.74354
G1 X138.539 Y87.364 E16.77359
G1 X139.432 Y87.496 E16.80361
G1 X140.31 Y87.707 E16.83365
G1 X141.166 Y87.995 E16.86368
G1 X141.993 Y88.357 E16.89371
G1 X142.785 Y88.792 E16.92376
G1 X143.536 Y89.294 E16.95381
G1 X144.239 Y89.861 E16.98385
G1 X144.889 Y90.488 E17.01389
G1 X145.481 Y91.17 E17.04392
G1 X146.011 Y91.901 E17.07395
G1 X146.473 Y92.677 E17.10399
G1 X146.866 Y93.49 E17.13403
G1 X147.184 Y94.335 E17.16406
G1 X147.427 Y95.205 E17.1941
G1 X147.592 Y96.093 E17.22414
G1 X147.687 Y97.223 E17.26186
G1 X147.696 Y97.543 E17.2725
G1 X147.7 Y97.83 E17.28205
G1 X147.699 Y136.89 E18.58119
G1 X147.69 Y137.617 E18.60537
G1 X147.639 Y138.519 E18.63542
G1 X147.508 Y139.413 E18.66547
G1 X147.299 Y140.291 E18.69549
G1 X147.013 Y141.148 E18.72554
G1 X146.652 Y141.976 E18.75558
G1 X146.22 Y142.768 E18.78559
G1 X145.719 Y143.52 E18.81564
G1 X145.153 Y144.224 E18.84569
G1 X144.528 Y144.875 E18.8757
G1 X143.847 Y145.469 E18.90576
G1 X143.116 Y146 E18.93581
G1 X142.342 Y146.464 E18.96583
G1 X141.529 Y146.858 E18.99587
G1 X140.685 Y147.178 E19.0259
G1 X139.815 Y147.423 E19.05596
G1 X138.928 Y147.589 E19.08597
G1 X137.777 Y147.687 E19.12439
G1 X137.456 Y147.696 E19.13507
G1 X137.17 Y147.7 E19.14459
G1 X98.075 Y147.699 E20.44489
G1 X97.377 Y147.69 E20.46811
G1 X96.476 Y147.639 E20.49812
G1 X95.582 Y147.507 E20.52818
G1 X94.704 Y147.298 E20.5582
G1 X93.847 Y147.011 E20.58826
G1 X93.02 Y146.65 E20.61827
G1 X92.227 Y146.217 E20.64832
G1 X91.476 Y145.716 E20.67835
G1 X90.772 Y145.15 E20.70839
G1 X90.121 Y144.524 E20.73843
G1 X89.528 Y143.843 E20.76847
G1 X88.998 Y143.112 E20.7985
G1 X88.534 Y142.337 E20.82854
G1 X88.14 Y141.524 E20.85859
G1 X87.82 Y140.68 E20.88861
G1 X87.576 Y139.81 E20.91866
G1 X87.41 Y138.922 E20.94871
G1 X87.313 Y137.767 E20.98726
G1 X87.304 Y137.434 E20.99834
G1 X87.3 Y137.158 E21.00752
G1 X87.301 Y98.036 E22.30873
G1 X87.31 Y97.371 E22.33085
G1 X87.362 Y96.469 E22.3609
G1 X87.494 Y95.576 E22.39092
G1 X87.704 Y94.698 E22.42095
G1 X87.991 Y93.841 E22.45101
G1 X88.353 Y93.014 E22.48103
G1 X88.786 Y92.222 E22.51105
G1 X89.288 Y91.471 E22.5411
G1 X89.855 Y90.767 E22.57116
G1 X90.481 Y90.117 E22.60118
G1 F2700 E17.60118
;MESH:xyzCalibration_cube.stl
G0 F6000 X97.92 Y96.835
G0 X97.92 Y97.92
G0 X136.718 Y98.282
G0 X136.9 Y136.9
;TYPE:WALL-INNER
G1 F2700 E22.60118
G1 F1200 X98.1 Y136.9 E23.89167
G1 X98.1 Y98.1 E25.18216
G1 X136.9 Y98.1 E26.47266
G1 X136.9 Y136.9 E27.76315
G0 F6000 X137.3 Y137.3
;TYPE:WALL-OUTER
G1 F1200 X97.7 Y137.3 E29.08025
G1 X97.7 Y97.7 E30.39735
G1 X137.3 Y97.7 E31.71445
G1 X137.3 Y137.3 E33.03156
G0 F6000 X137.03 Y137.03
G0 X136.79 Y136.51
G0 X136.51 Y136.51
;TYPE:SKIN
G1 F1200 X98.49 Y136.51 E34.29611
G1 X98.49 Y98.49 E35.56066
G1 X136.51 Y98.49 E36.82521
G1 X136.51 Y136.51 E38.08976
G1 F2700 E33.08976
G0 F6000 X136.79 Y136.51
G0 X136.79 Y99.014
G0 X136.349 Y99.014
G1 F2700 E38.08976
G1 F1200 X135.985 Y98.65 E38.10688
G0 F6000 X135.42 Y98.65
G1 F1200 X136.349 Y99.58 E38.1506
G0 F6000 X136.349 Y100.146
G1 F1200 X134.854 Y98.65 E38.22094
G0 F6000 X134.288 Y98.65
G1 F1200 X136.349 Y100.711 E38.31789
G0 F6000 X136.349 Y101.277
G1 F1200 X133.723 Y98.65 E38.44143
G0 F6000 X133.157 Y98.65
G1 F1200 X136.349 Y101.843 E38.59159
G0 F6000 X136.349 Y102.408
G1 F1200 X132.591 Y98.65 E38.76836
G0 F6000 X132.026 Y98.65
G1 F1200 X136.349 Y102.974 E38.97172
G0 F6000 X136.349 Y103.54
G1 F1200 X131.46 Y98.65 E39.20171
G0 F6000 X130.894 Y98.65
G1 F1200 X136.349 Y104.105 E39.4583
G0 F6000 X136.349 Y104.671
G1 F1200 X130.328 Y98.65 E39.74151
G0 F6000 X129.763 Y98.65
G1 F1200 X136.349 Y105.237 E40.05132
G0 F6000 X136.349 Y105.802
G1 F1200 X129.197 Y98.65 E40.38772
G0 F6000 X128.631 Y98.65
G1 F1200 X136.349 Y106.368 E40.75075
G0 F6000 X136.349 Y106.934
G1 F1200 X128.066 Y98.65 E41.14039
G0 F6000 X127.5 Y98.65
G1 F1200 X136.349 Y107.5 E41.55664
G0 F6000 X136.349 Y108.065
G1 F1200 X126.934 Y98.65 E41.99949
G0 F6000 X126.369 Y98.65
G1 F1200 X136.349 Y108.631 E42.46894
G0 F6000 X136.349 Y109.197
G1 F1200 X125.803 Y98.65 E42.96502
G0 F6000 X125.237 Y98.65
G1 F1200 X136.349 Y109.762 E43.48769
G0 F6000 X136.349 Y110.328
G1 F1200 X124.672 Y98.65 E44.03697
G0 F6000 X124.106 Y98.65
G1 F1200 X136.349 Y110.894 E44.61286
G0 F6000 X136.349 Y111.459
G1 F1200 X123.54 Y98.65 E45.21536
G0 F6000 X122.975 Y98.65
G1 F1200 X136.349 Y112.025 E45.84445
G0 F6000 X136.349 Y112.591
G1 F1200 X122.409 Y98.65 E46.50017
G0 F6000 X121.843 Y98.65
G1 F1200 X136.349 Y113.156 E47.18249
G0 F6000 X136.349 Y113.722
G1 F1200 X121.278 Y98.65 E47.89141
G0 F6000 X120.712 Y98.65
G1 F1200 X136.349 Y114.288 E48.62695
G0 F6000 X136.349 Y114.853
G1 F1200 X120.146 Y98.65 E49.38909
G0 F6000 X119.58 Y98.65
G1 F1200 X136.349 Y115.419 E50.17785
G0 F6000 X136.349 Y115.985
G1 F1200 X119.015 Y98.65 E50.99321
G0 F6000 X118.449 Y98.65
G1 F1200 X136.349 Y116.55 E51.83517
G0 F6000 X136.349 Y117.116
G1 F1200 X117.883 Y98.65 E52.70376
G0 F6000 X117.318 Y98.65
G1 F1200 X136.349 Y117.682 E53.59894
G0 F6000 X136.349 Y118.248
G1 F1200 X116.752 Y98.65 E54.52075
G0 F6000 X116.186 Y98.65
G1 F1200 X136.349 Y118.813 E55.46915
G0 F6000 X136.349 Y119.379
G1 F1200 X115.621 Y98.65 E56.44416
G0 F6000 X115.055 Y98.65
G1 F1200 X136.349 Y119.945 E57.44579
G0 F6000 X136.349 Y120.51
G1 F1200 X114.489 Y98.65 E58.47401
G0 F6000 X113.924 Y98.65
G1 F1200 X136.349 Y121.076 E59.52884
G0 F6000 X136.349 Y121.642
G1 F1200 X113.358 Y98.65 E60.61029
G0 F6000 X112.792 Y98.65
G1 F1200 X136.349 Y122.207 E61.71834
G0 F6000 X136.349 Y122.773
G1 F1200 X112.227 Y98.65 E62.85299
G0 F6000 X111.661 Y98.65
G1 F1200 X136.349 Y123.339 E64.01426
G0 F6000 X136.349 Y123.904
G1 F1200 X111.095 Y98.65 E65.20213
G0 F6000 X110.529 Y98.65
G1 F1200 X136.349 Y124.47 E66.41662
G0 F6000 X136.349 Y125.036
G1 F1200 X109.964 Y98.65 E67.65772
G0 F6000 X109.398 Y98.65
G1 F1200 X136.349 Y125.601 E68.92541
G0 F6000 X136.349 Y126.167
G1 F1200 X108.832 Y98.65 E70.21972
G0 F6000 X108.267 Y98.65
G1 F1200 X136.349 Y126.733 E71.54064
G0 F6000 X136.349 Y127.299
G1 F1200 X107.701 Y98.65 E72.88818
G0 F6000 X107.135 Y98.65
G1 F1200 X136.349 Y127.864 E74.26231
G0 F6000 X136.349 Y128.43
G1 F1200 X106.57 Y98.65 E75.66305
G0 F6000 X106.004 Y98.65
G1 F1200 X136.349 Y128.996 E77.09041
G0 F6000 X136.349 Y129.561
G1 F1200 X105.438 Y98.65 E78.54437
G0 F6000 X104.873 Y98.65
G1 F1200 X136.349 Y130.127 E80.02492
G0 F6000 X136.349 Y130.693
G1 F1200 X104.307 Y98.65 E81.53211
G0 F6000 X103.741 Y98.65
G1 F1200 X136.349 Y131.258 E83.06589
G0 F6000 X136.349 Y131.824
G1 F1200 X103.176 Y98.65 E84.62627
G0 F6000 X102.61 Y98.65
G1 F1200 X136.349 Y132.39 E86.21327
G0 F6000 X136.349 Y132.955
G1 F1200 X102.044 Y98.65 E87.82687
G0 F6000 X101.479 Y98.65
G1 F1200 X136.349 Y133.521 E89.46707
G0 F6000 X136.349 Y134.087
G1 F1200 X100.913 Y98.65 E91.1339
G0 F6000 X100.347 Y98.65
G1 F1200 X136.349 Y134.652 E92.82732
G0 F6000 X136.349 Y135.218
G1 F1200 X99.781 Y98.65 E94.54737
G0 F6000 X99.216 Y98.65
G1 F1200 X136.349 Y135.784 E96.29401
G0 F6000 X136.349 Y136.349
G1 F1200 X98.649 Y98.649 E98.0673
G0 F6000 X98.649 Y99.215
G1 F1200 X135.783 Y136.349 E99.81397
G0 F6000 X135.217 Y136.349
G1 F1200 X98.649 Y99.781 E101.53402
G0 F6000 X98.649 Y100.346
G1 F1200 X134.652 Y136.349 E103.22749
G0 F6000 X134.086 Y136.349
G1 F1200 X98.649 Y100.912 E104.89434
G0 F6000 X98.649 Y101.478
G1 F1200 X133.52 Y136.349 E106.53456
G0 F6000 X132.955 Y136.349
G1 F1200 X98.649 Y102.043 E108.14821
G0 F6000 X98.649 Y102.609
G1 F1200 X132.389 Y136.349 E109.73524
G0 F6000 X131.823 Y136.349
G1 F1200 X98.649 Y103.175 E111.29564
G0 F6000 X98.649 Y103.741
G1 F1200 X131.258 Y136.349 E112.82945
G0 F6000 X130.692 Y136.349
G1 F1200 X98.649 Y104.306 E114.33665
G0 F6000 X98.649 Y104.872
G1 F1200 X130.126 Y136.349 E115.81723
G0 F6000 X129.561 Y136.349
G1 F1200 X98.649 Y105.438 E117.27122
G0 F6000 X98.649 Y106.003
G1 F1200 X128.995 Y136.349 E118.6986
G0 F6000 X128.429 Y136.349
G1 F1200 X98.649 Y106.569 E120.09936
G0 F6000 X98.649 Y107.135
G1 F1200 X127.863 Y136.349 E121.47349
G0 F6000 X127.298 Y136.349
G1 F1200 X98.649 Y107.7 E122.82106
G0 F6000 X98.649 Y108.266
G1 F1200 X126.732 Y136.349 E124.14199
G0 F6000 X126.166 Y136.349
G1 F1200 X98.649 Y108.832 E125.43631
G0 F6000 X98.649 Y109.397
G1 F1200 X125.601 Y136.349 E126.70405
G0 F6000 X125.035 Y136.349
G1 F1200 X98.649 Y109.963 E127.94517
G0 F6000 X98.649 Y110.529
G1 F1200 X124.469 Y136.349 E129.15966
G0 F6000 X123.904 Y136.349
G1 F1200 X98.649 Y111.094 E130.34758
G0 F6000 X98.649 Y111.66
G1 F1200 X123.338 Y136.349 E131.50887
G0 F6000 X122.772 Y136.349
G1 F1200 X98.649 Y112.226 E132.64354
G0 F6000 X98.649 Y112.792
G1 F1200 X122.207 Y136.349 E133.75162
G0 F6000 X121.641 Y136.349
G1 F1200 X98.649 Y113.357 E134.83309
G0 F6000 X98.649 Y113.923
G1 F1200 X121.075 Y136.349 E135.88794
G0 F6000 X120.51 Y136.349
G1 F1200 X98.649 Y114.489 E136.91619
G0 F6000 X98.649 Y115.054
G1 F1200 X119.944 Y136.349 E137.91784
G0 F6000 X119.378 Y136.349
G1 F1200 X98.649 Y115.62 E138.89287
G0 F6000 X98.649 Y116.186
G1 F1200 X118.813 Y136.349 E139.8413
G0 F6000 X118.247 Y136.349
G1 F1200 X98.649 Y116.751 E140.76313
G0 F6000 X98.649 Y117.317
G1 F1200 X117.681 Y136.349 E141.65834
G0 F6000 X117.115 Y136.349
G1 F1200 X98.649 Y117.883 E142.52692
G0 F6000 X98.649 Y118.448
G1 F1200 X116.55 Y136.349 E143.36893
G0 F6000 X115.984 Y136.349
G1 F1200 X98.649 Y119.014 E144.18431
G0 F6000 X98.649 Y119.58
G1 F1200 X115.418 Y136.349 E144.97308
G0 F6000 X114.853 Y136.349
G1 F1200 X98.649 Y120.145 E145.73526
G0 F6000 X98.649 Y120.711
G1 F1200 X114.287 Y136.349 E146.47083
G0 F6000 X113.721 Y136.349
G1 F1200 X98.649 Y121.277 E147.17977
G0 F6000 X98.649 Y121.842
G1 F1200 X113.156 Y136.349 E147.86213
G0 F6000 X112.59 Y136.349
G1 F1200 X98.649 Y122.408 E148.51787
