;FLAVOR:Marlin
;TIME:1016
;Filament used: 1.0355m
;Layer height: 0.28
;MINX:87.883
;MINY:87.879
;MINZ:0.28
;MAXX:147.117
;MAXY:147.121
;MAXZ:2.24
;Generated with Cura_SteamEngine 4.7.1
M140 S50
M105
M190 S50
M104 S200
M105
M109 S200
M82 ;absolute extrusion mode
; Ender 3 Custom Start G-code
G92 E0 ; Reset Extruder
G28 ; Home all axes
G1 Z4.0 F3000 ; Move Z Axis up little to prevent scratching of Heat Bed
G1 X0.1 Y20 Z0.3 F5000.0 ; Move to start position
G1 X0.1 Y200.0 Z0.3 F1500.0 E15 ; Draw the first line
G1 X0.4 Y200.0 Z0.3 F5000.0 ; Move to side a little
G92 E0 ; Reset Extruder
G1 Z4.0 F3000 ; Move Z Axis up little to prevent scratching of Heat Bed
G1 X5 Y20 Z0.3 F5000.0 ; Move over to prevent blob squish
G92 E0
G92 E0
G1 F2700 E-5
;LAYER_COUNT:8
;LAYER:0
M107
G0 F6000 X96.29 Y96.819 Z0.28
;TYPE:SKIRT
G1 F2700 E0
G1 F1200 X96.961 Y96.163 E0.0437
G1 X97.461 Y95.741 E0.07416
G1 X98.166 Y95.18 E0.11611
G1 X98.319 Y95.06 E0.12517
G1 X100.949 Y93.042 E0.27953
G1 X101.089 Y92.936 E0.28771
G1 X101.609 Y92.55 E0.31786
G1 X102.385 Y92.024 E0.36151
G1 X103.203 Y91.566 E0.40517
G1 X103.772 Y91.298 E0.43445
G1 X104.619 Y90.929 E0.47747
G1 X104.802 Y90.852 E0.48672
G1 X107.936 Y89.554 E0.64467
G1 X108.584 Y89.296 E0.67715
G1 X109.469 Y88.987 E0.7208
G1 X110.378 Y88.754 E0.76449
G1 X111.016 Y88.639 E0.79468
G1 X111.913 Y88.504 E0.83692
G1 X112.114 Y88.475 E0.84637
G1 X115.38 Y88.045 E0.99977
G1 X116.195 Y87.949 E1.03798
G1 X117.131 Y87.879 E1.08168
G1 X118.069 Y87.89 E1.12536
G1 X118.715 Y87.944 E1.15555
G1 X119.631 Y88.048 E1.19848
G1 X119.827 Y88.072 E1.20767
G1 X123.243 Y88.523 E1.36811
G1 X123.865 Y88.613 E1.39738
G1 X124.787 Y88.787 E1.44107
G1 X125.69 Y89.039 E1.48472
G1 X126.322 Y89.266 E1.51599
G1 X127.213 Y89.617 E1.56058
G1 X127.389 Y89.688 E1.56942
G1 X130.522 Y90.986 E1.72733
G1 X131.148 Y91.256 E1.75908
G1 X131.993 Y91.664 E1.80277
G1 X132.8 Y92.143 E1.84647
G1 X133.333 Y92.513 E1.87668
G1 X134.214 Y93.166 E1.92774
G1 X136.834 Y95.176 E2.08151
G1 X137.47 Y95.678 E2.11924
G1 X138.181 Y96.29 E2.16292
G1 X138.837 Y96.961 E2.20661
G1 X139.259 Y97.461 E2.23708
G1 X139.82 Y98.166 E2.27903
G1 X139.94 Y98.319 E2.28809
G1 X141.958 Y100.949 E2.44245
G1 X142.448 Y101.607 E2.48065
G1 X142.975 Y102.383 E2.52433
G1 X143.434 Y103.201 E2.568
G1 X143.705 Y103.778 E2.59769
G1 X144.073 Y104.624 E2.64065
G1 X144.149 Y104.803 E2.6497
G1 X145.442 Y107.927 E2.80714
G1 X145.702 Y108.579 E2.83982
G1 X146.012 Y109.464 E2.88348
G1 X146.245 Y110.372 E2.92713
G1 X146.362 Y111.022 E2.95789
G1 X146.498 Y111.929 E3.00059
G1 X146.526 Y112.128 E3.00995
G1 X146.95 Y115.359 E3.16169
G1 X147.045 Y116.148 E3.19869
G1 X147.117 Y117.083 E3.24236
G1 X147.11 Y118.021 E3.28604
G1 X147.056 Y118.68 E3.31683
G1 X146.947 Y119.659 E3.3627
G1 X146.921 Y119.876 E3.37287
G1 X146.488 Y123.17 E3.52757
G1 X146.458 Y123.382 E3.53754
G1 X146.371 Y123.957 E3.56462
G1 X146.191 Y124.877 E3.60828
G1 X145.934 Y125.779 E3.65195
G1 X145.726 Y126.351 E3.68029
G1 X145.435 Y127.088 E3.71718
G1 X145.367 Y127.256 E3.72562
G1 X144.014 Y130.522 E3.89024
G1 X143.744 Y131.148 E3.92198
G1 X143.336 Y131.993 E3.96567
G1 X142.857 Y132.8 E4.00937
G1 X142.487 Y133.333 E4.03958
G1 X141.834 Y134.214 E4.09065
G1 X139.824 Y136.834 E4.24441
G1 X139.322 Y137.47 E4.28214
G1 X138.71 Y138.181 E4.32582
G1 X138.039 Y138.837 E4.36952
G1 X137.539 Y139.259 E4.39998
G1 X136.834 Y139.82 E4.44194
G1 X136.681 Y139.94 E4.45099
G1 X134.051 Y141.958 E4.60535
G1 X133.911 Y142.064 E4.61353
G1 X133.391 Y142.45 E4.64368
G1 X132.615 Y142.976 E4.68734
G1 X131.797 Y143.434 E4.73099
G1 X131.228 Y143.702 E4.76028
G1 X130.381 Y144.071 E4.8033
G1 X130.197 Y144.149 E4.8126
G1 X127.073 Y145.442 E4.97004
G1 X126.421 Y145.702 E5.00272
G1 X125.536 Y146.012 E5.04639
G1 X124.628 Y146.245 E5.09004
G1 X123.984 Y146.361 E5.12051
G1 X123.087 Y146.496 E5.16274
G1 X122.886 Y146.525 E5.1722
G1 X119.62 Y146.955 E5.32559
G1 X118.805 Y147.051 E5.3638
G1 X117.869 Y147.121 E5.40751
G1 X116.931 Y147.11 E5.45119
G1 X116.285 Y147.056 E5.48138
G1 X115.369 Y146.952 E5.5243
G1 X115.173 Y146.928 E5.5335
G1 X111.757 Y146.477 E5.69394
G1 X111.135 Y146.387 E5.72321
G1 X110.213 Y146.213 E5.7669
G1 X109.31 Y145.961 E5.81055
G1 X108.678 Y145.734 E5.84182
G1 X107.787 Y145.383 E5.88641
G1 X107.611 Y145.312 E5.89525
G1 X104.478 Y144.014 E6.05316
G1 X103.852 Y143.744 E6.0849
G1 X103.007 Y143.336 E6.1286
G1 X102.2 Y142.857 E6.17229
G1 X101.667 Y142.487 E6.20251
G1 X100.786 Y141.834 E6.25357
G1 X98.166 Y139.824 E6.40733
G1 X97.53 Y139.322 E6.44506
G1 X96.819 Y138.71 E6.48875
G1 X96.163 Y138.039 E6.53244
G1 X95.741 Y137.539 E6.56291
G1 X95.18 Y136.834 E6.60486
G1 X95.06 Y136.681 E6.61391
G1 X93.042 Y134.051 E6.76827
G1 X92.552 Y133.393 E6.80648
G1 X92.025 Y132.617 E6.85015
G1 X91.566 Y131.799 E6.89383
G1 X91.295 Y131.222 E6.92351
G1 X90.927 Y130.376 E6.96647
G1 X90.851 Y130.197 E6.97553
G1 X89.558 Y127.073 E7.13296
G1 X89.298 Y126.421 E7.16565
G1 X88.988 Y125.536 E7.20931
G1 X88.755 Y124.628 E7.25296
G1 X88.638 Y123.978 E7.28371
G1 X88.502 Y123.071 E7.32642
G1 X88.474 Y122.872 E7.33578
G1 X88.05 Y119.639 E7.48761
G1 X87.955 Y118.849 E7.52466
G1 X87.883 Y117.914 E7.56833
G1 X87.89 Y116.976 E7.612
G1 X87.944 Y116.318 E7.64275
G1 X88.053 Y115.34 E7.68857
G1 X88.079 Y115.124 E7.6987
G1 X88.512 Y111.83 E7.8534
G1 X88.542 Y111.618 E7.86337
G1 X88.629 Y111.043 E7.89045
G1 X88.809 Y110.123 E7.9341
G1 X89.066 Y109.221 E7.97777
G1 X89.274 Y108.649 E8.00611
G1 X89.565 Y107.912 E8.04301
G1 X89.633 Y107.744 E8.05145
G1 X90.986 Y104.478 E8.21606
G1 X91.256 Y103.852 E8.24781
G1 X91.664 Y103.007 E8.2915
G1 X92.143 Y102.2 E8.3352
G1 X92.513 Y101.667 E8.36541
G1 X93.166 Y100.786 E8.41647
G1 X95.176 Y98.166 E8.57024
G1 X95.678 Y97.53 E8.60797
G1 X96.29 Y96.819 E8.65165
G0 F6000 X96.593 Y97.081
G1 F1200 X97.253 Y96.439 E8.69452
G1 X97.71 Y96.054 E8.72235
G1 X98.562 Y95.377 E8.77302
G1 X101.192 Y93.359 E8.92738
G1 X101.847 Y92.872 E8.96539
G1 X102.609 Y92.356 E9.00824
G1 X103.414 Y91.908 E9.05114
G1 X103.931 Y91.665 E9.07774
G1 X104.778 Y91.296 E9.12076
G1 X104.955 Y91.221 E9.12971
G1 X107.948 Y89.981 E9.28056
G1 X108.732 Y89.668 E9.31987
G1 X109.601 Y89.365 E9.36272
G1 X110.494 Y89.138 E9.40563
G1 X111.075 Y89.034 E9.43311
G1 X111.972 Y88.899 E9.47535
G1 X112.166 Y88.872 E9.48447
G1 X115.584 Y88.423 E9.64499
G1 X116.242 Y88.346 E9.67584
G1 X117.16 Y88.279 E9.7187
G1 X118.081 Y88.291 E9.76159
G1 X118.67 Y88.342 E9.78912
G1 X119.586 Y88.446 E9.83205
G1 X119.775 Y88.469 E9.84091
G1 X123.186 Y88.919 E10.00112
G1 X123.808 Y89.009 E10.03038
G1 X124.713 Y89.181 E10.07328
G1 X125.599 Y89.43 E10.11613
G1 X126.175 Y89.638 E10.14465
G1 X127.236 Y90.057 E10.19777
G1 X130.221 Y91.293 E10.3482
G1 X130.99 Y91.624 E10.38719
G1 X131.819 Y92.025 E10.43007
G1 X132.61 Y92.496 E10.47294
G1 X133.096 Y92.835 E10.50053
G1 X133.822 Y93.372 E10.54258
G1 X133.97 Y93.484 E10.55122
G1 X136.59 Y95.494 E10.70498
G1 X137.222 Y95.992 E10.74245
G1 X137.919 Y96.593 E10.7853
G1 X138.561 Y97.253 E10.82818
G1 X138.946 Y97.71 E10.856
G1 X139.623 Y98.562 E10.90667
G1 X141.641 Y101.192 E11.06104
G1 X142.127 Y101.845 E11.09894
G1 X142.644 Y102.607 E11.14182
G1 X143.092 Y103.412 E11.18471
G1 X143.338 Y103.938 E11.21175
G1 X143.706 Y104.784 E11.25471
G1 X143.779 Y104.956 E11.26341
G1 X145.07 Y108.075 E11.4206
G1 X145.33 Y108.727 E11.45328
G1 X145.634 Y109.596 E11.49615
G1 X145.861 Y110.488 E11.53901
G1 X145.967 Y111.081 E11.56706
G1 X146.103 Y111.988 E11.60976
G1 X146.13 Y112.18 E11.61879
G1 X146.553 Y115.407 E11.77034
G1 X146.648 Y116.196 E11.80735
G1 X146.718 Y117.114 E11.85022
G1 X146.709 Y118.034 E11.89306
G1 X146.659 Y118.636 E11.92119
G1 X146.55 Y119.615 E11.96705
G1 X146.525 Y119.823 E11.97681
G1 X146.092 Y123.117 E12.13151
G1 X146.063 Y123.322 E12.14115
G1 X145.976 Y123.897 E12.16823
G1 X145.799 Y124.8 E12.21108
G1 X145.544 Y125.685 E12.25396
G1 X145.354 Y126.204 E12.2797
G1 X144.998 Y127.103 E12.32472
G1 X143.707 Y130.221 E12.48186
G1 X143.376 Y130.99 E12.52085
G1 X142.975 Y131.819 E12.56373
G1 X142.504 Y132.61 E12.60659
G1 X142.165 Y133.096 E12.63419
G1 X141.628 Y133.822 E12.67623
G1 X141.516 Y133.97 E12.68488
G1 X139.506 Y136.59 E12.83864
G1 X139.008 Y137.222 E12.87611
G1 X138.407 Y137.919 E12.91896
G1 X137.747 Y138.561 E12.96184
G1 X137.29 Y138.946 E12.98966
G1 X136.438 Y139.623 E13.04033
G1 X133.808 Y141.641 E13.19469
G1 X133.153 Y142.128 E13.2327
G1 X132.391 Y142.644 E13.27555
G1 X131.586 Y143.092 E13.31845
G1 X131.069 Y143.335 E13.34505
G1 X130.222 Y143.704 E13.38807
G1 X130.044 Y143.779 E13.39706
G1 X126.925 Y145.07 E13.55425
G1 X126.273 Y145.33 E13.58693
G1 X125.404 Y145.634 E13.6298
G1 X124.512 Y145.861 E13.67266
G1 X123.925 Y145.966 E13.70043
G1 X123.028 Y146.101 E13.74267
G1 X122.834 Y146.128 E13.75179
G1 X119.416 Y146.577 E13.91231
G1 X118.758 Y146.654 E13.94316
G1 X117.84 Y146.721 E13.98602
G1 X116.919 Y146.709 E14.02891
G1 X116.33 Y146.658 E14.05644
G1 X115.414 Y146.554 E14.09936
G1 X115.225 Y146.531 E14.10823
G1 X111.814 Y146.081 E14.26843
G1 X111.192 Y145.991 E14.2977
G1 X110.287 Y145.819 E14.34059
G1 X109.401 Y145.57 E14.38345
G1 X108.825 Y145.362 E14.41196
G1 X107.764 Y144.943 E14.46508
G1 X104.779 Y143.707 E14.61552
G1 X104.01 Y143.376 E14.6545
G1 X103.181 Y142.975 E14.69739
G1 X102.39 Y142.504 E14.74025
G1 X101.904 Y142.165 E14.76784
G1 X101.178 Y141.628 E14.80989
G1 X101.03 Y141.516 E14.81854
G1 X98.41 Y139.506 E14.9723
G1 X97.778 Y139.008 E15.00977
G1 X97.081 Y138.407 E15.05262
G1 X96.439 Y137.747 E15.09549
G1 X96.054 Y137.29 E15.12332
G1 X95.377 Y136.438 E15.17399
G1 X93.359 Y133.808 E15.32835
G1 X92.873 Y133.155 E15.36625
G1 X92.356 Y132.393 E15.40913
G1 X91.908 Y131.588 E15.45203
G1 X91.662 Y131.062 E15.47907
G1 X91.294 Y130.216 E15.52203
G1 X91.221 Y130.044 E15.53073
G1 X89.93 Y126.925 E15.68791
G1 X89.67 Y126.273 E15.7206
G1 X89.366 Y125.404 E15.76347
G1 X89.139 Y124.512 E15.80633
G1 X89.033 Y123.919 E15.83438
G1 X88.897 Y123.012 E15.87708
G1 X88.87 Y122.82 E15.88611
G1 X88.447 Y119.592 E16.0377
G1 X88.352 Y118.802 E16.07475
G1 X88.282 Y117.884 E16.11762
G1 X88.291 Y116.963 E16.16051
G1 X88.341 Y116.362 E16.18859
G1 X88.45 Y115.384 E16.23442
G1 X88.475 Y115.177 E16.24412
G1 X88.908 Y111.883 E16.39883
G1 X88.937 Y111.678 E16.40847
G1 X89.024 Y111.103 E16.43555
G1 X89.201 Y110.2 E16.47839
G1 X89.456 Y109.315 E16.52128
G1 X89.646 Y108.796 E16.54702
G1 X90.002 Y107.897 E16.59204
G1 X91.293 Y104.779 E16.74918
G1 X91.624 Y104.01 E16.78816
G1 X92.025 Y103.181 E16.83104
G1 X92.496 Y102.39 E16.87391
G1 X92.835 Y101.904 E16.9015
G1 X93.372 Y101.178 E16.94355
G1 X93.484 Y101.03 E16.95219
G1 X95.494 Y98.41 E17.10596
G1 X95.992 Y97.778 E17.14342
G1 X96.593 Y97.081 E17.18628
G0 F6000 X96.896 Y97.342
G1 F1200 X97.545 Y96.714 E17.22833
G1 X97.959 Y96.367 E17.25348
G1 X98.664 Y95.806 E17.29544
G1 X98.806 Y95.695 E17.30383
G1 X101.565 Y93.579 E17.46573
G1 X102.085 Y93.193 E17.49589
G1 X102.834 Y92.687 E17.53798
G1 X103.624 Y92.25 E17.58002
G1 X104.091 Y92.032 E17.60402
G1 X104.938 Y91.663 E17.64704
G1 X105.108 Y91.591 E17.65563
G1 X108.232 Y90.297 E17.81308
G1 X108.88 Y90.039 E17.84556
G1 X109.733 Y89.743 E17.8876
G1 X110.609 Y89.523 E17.92966
G1 X111.135 Y89.43 E17.95453
G1 X112.219 Y89.268 E18.00557
G1 X115.485 Y88.838 E18.15896
G1 X116.288 Y88.743 E18.19661
G1 X117.189 Y88.678 E18.23868
G1 X118.092 Y88.693 E18.28073
G1 X118.625 Y88.739 E18.30564
G1 X119.541 Y88.843 E18.34857
G1 X119.723 Y88.865 E18.3571
G1 X123.001 Y89.297 E18.51106
G1 X123.751 Y89.405 E18.54634
G1 X124.638 Y89.574 E18.58839
G1 X125.507 Y89.82 E18.63044
G1 X126.029 Y90.01 E18.65631
G1 X126.92 Y90.361 E18.7009
G1 X127.083 Y90.427 E18.70909
G1 X130.206 Y91.721 E18.8665
G1 X130.832 Y91.991 E18.89824
G1 X131.644 Y92.385 E18.94027
G1 X132.419 Y92.849 E18.98233
G1 X132.858 Y93.157 E19.0073
G1 X133.727 Y93.801 E19.05767
G1 X136.347 Y95.811 E19.21143
G1 X136.974 Y96.306 E19.24863
G1 X137.658 Y96.896 E19.29069
G1 X138.286 Y97.545 E19.33274
G1 X138.633 Y97.959 E19.3579
G1 X139.194 Y98.664 E19.39985
G1 X139.305 Y98.806 E19.40824
G1 X141.323 Y101.436 E19.5626
G1 X141.419 Y101.563 E19.57001
G1 X141.806 Y102.084 E19.60023
G1 X142.312 Y102.832 E19.64229
G1 X142.75 Y103.622 E19.68435
G1 X142.971 Y104.097 E19.70874
G1 X143.41 Y105.109 E19.76011
G1 X144.648 Y108.098 E19.91075
G1 X144.958 Y108.875 E19.94971
G1 X145.256 Y109.728 E19.99178
G1 X145.476 Y110.603 E20.03379
G1 X145.571 Y111.14 E20.05919
G1 X145.707 Y112.047 E20.10189
G1 X145.733 Y112.232 E20.11059
G1 X146.156 Y115.455 E20.26195
G1 X146.251 Y116.244 E20.29896
G1 X146.319 Y117.144 E20.34099
G1 X146.307 Y118.047 E20.38304
G1 X146.261 Y118.592 E20.4085
G1 X146.152 Y119.571 E20.45437
G1 X146.128 Y119.771 E20.46375
G1 X145.695 Y123.065 E20.61845
G1 X145.667 Y123.262 E20.62772
G1 X145.58 Y123.837 E20.6548
G1 X145.406 Y124.723 E20.69684
G1 X145.154 Y125.59 E20.73888
G1 X144.982 Y126.057 E20.76206
G1 X144.691 Y126.794 E20.79895
G1 X144.628 Y126.95 E20.80679
G1 X143.279 Y130.206 E20.9709
G1 X143.009 Y130.832 E21.00264
G1 X142.615 Y131.644 E21.04467
G1 X142.151 Y132.419 E21.08673
G1 X141.843 Y132.858 E21.1117
G1 X141.199 Y133.727 E21.16207
G1 X139.189 Y136.347 E21.31583
G1 X138.694 Y136.974 E21.35303
G1 X138.104 Y137.658 E21.39509
G1 X137.455 Y138.286 E21.43714
G1 X137.041 Y138.633 E21.46229
G1 X136.336 Y139.194 E21.50425
G1 X136.194 Y139.305 E21.51264
G1 X133.435 Y141.421 E21.67454
G1 X132.915 Y141.807 E21.7047
G1 X132.166 Y142.313 E21.74679
G1 X131.376 Y142.75 E21.78883
G1 X130.909 Y142.968 E21.81282
G1 X130.062 Y143.337 E21.85585
G1 X129.891 Y143.41 E21.8645
G1 X126.902 Y144.648 E22.01515
G1 X126.125 Y144.958 E22.0541
G1 X125.272 Y145.256 E22.09618
G1 X124.397 Y145.476 E22.13819
G1 X123.865 Y145.57 E22.16334
G1 X122.781 Y145.732 E22.21438
G1 X119.515 Y146.162 E22.36777
G1 X118.712 Y146.257 E22.40542
G1 X117.811 Y146.322 E22.44749
G1 X116.908 Y146.307 E22.48954
G1 X116.375 Y146.261 E22.51445
G1 X115.459 Y146.157 E22.55738
G1 X115.277 Y146.135 E22.56591
G1 X111.999 Y145.703 E22.71987
G1 X111.249 Y145.595 E22.75515
G1 X110.362 Y145.426 E22.7972
G1 X109.493 Y145.18 E22.83925
G1 X108.971 Y144.99 E22.86512
G1 X108.08 Y144.639 E22.90971
G1 X107.917 Y144.573 E22.9179
G1 X104.794 Y143.279 E23.07531
G1 X104.168 Y143.009 E23.10705
G1 X103.356 Y142.615 E23.14908
G1 X102.581 Y142.151 E23.19114
G1 X102.142 Y141.843 E23.21611
G1 X101.273 Y141.199 E23.26648
G1 X98.653 Y139.189 E23.42024
G1 X98.026 Y138.694 E23.45744
G1 X97.342 Y138.104 E23.4995
G1 X96.714 Y137.455 E23.54155
G1 X96.367 Y137.041 E23.56671
G1 X95.806 Y136.336 E23.60866
G1 X95.695 Y136.194 E23.61705
G1 X93.677 Y133.564 E23.77141
G1 X93.581 Y133.437 E23.77882
G1 X93.194 Y132.916 E23.80904
G1 X92.688 Y132.168 E23.8511
G1 X92.25 Y131.378 E23.89316
G1 X92.029 Y130.903 E23.91755
G1 X91.59 Y129.891 E23.96892
G1 X90.352 Y126.902 E24.11956
G1 X90.042 Y126.125 E24.15852
G1 X89.744 Y125.272 E24.20059
G1 X89.524 Y124.397 E24.2426
G1 X89.429 Y123.86 E24.268
G1 X89.293 Y122.953 E24.3107
G1 X89.267 Y122.768 E24.3194
G1 X88.844 Y119.544 E24.47081
G1 X88.749 Y118.754 E24.50786
G1 X88.681 Y117.853 E24.54993
G1 X88.693 Y116.95 E24.59199
G1 X88.739 Y116.406 E24.61741
G1 X88.848 Y115.428 E24.66323
G1 X88.872 Y115.229 E24.67256
G1 X89.305 Y111.935 E24.82726
G1 X89.333 Y111.738 E24.83653
G1 X89.42 Y111.163 E24.86361
G1 X89.594 Y110.277 E24.90565
G1 X89.846 Y109.41 E24.94769
G1 X90.018 Y108.943 E24.97087
G1 X90.309 Y108.206 E25.00776
G1 X90.372 Y108.05 E25.0156
G1 X91.721 Y104.794 E25.17971
G1 X91.991 Y104.168 E25.21145
G1 X92.385 Y103.356 E25.25348
G1 X92.849 Y102.581 E25.29554
G1 X93.157 Y102.142 E25.32051
G1 X93.801 Y101.273 E25.37088
G1 X95.811 Y98.653 E25.52464
G1 X96.306 Y98.026 E25.56184
G1 X96.896 Y97.342 E25.6039


; Add our code here.
; firt experiment somewhat less E and no feed rate change 

G0 F2700 X104 Y96 Z1
G1 X104 Y96 E27.00
G4 P2000
G1 F50 X104 Y96 Z4 E27.50
G0 X106 Y100 Z3
G0 X106 Y46 Z2 F15000

G0 F2700 X108 Y96 Z1
G1 X108 Y96 E28.50
G4 P2000
G1 F50 X108 Y96 Z4 E29.00
G0 X110 Y100 Z3
G0 X110 Y46 Z2 F15000

G0 F2700 X112 Y96 Z1
G1 X112 Y96 E30.00
G4 P2000
G1 F50 X112 Y96 Z4 E30.50
G0 X114 Y100 Z3
G0 X114 Y46 Z2 F15000

